X: 27719
T: Morning Dew, The
R: reel
M: 4/4
K: Edorian
|:~E3 B BAFD|EDEB BAFD|1 ~E3 B BAFA|BcdB ADFD:|2 ~E3 B BAFA|BcdB ADFA||
|:~B2 eB fBeB|~B2 eB AFDF|1 ~B2 eB fBeB|BcdB AFDF:|2 Bdeg fdec|d2dA BAFA||
|:~B2 EB GBEB|~B2 EB AFDF|1 ~B2 eB GBEB|BcdB AFDF:|2 Bdeg fdec|d2dA BAFA||
|:BAGF EFGA|~B2 GB ~A2 GA|1 BAGF EFGA|BcdB ADFA:|2 BAGF EFGA|BcdB ADFD||

